img/section4-3-background.svg

<svg fill="none" height="1117" viewBox="0 0 1728 1117" width="1728" xmlns="http://www.w3.org/2000/svg" xmlns:xlink="http://www.w3.org/1999/xlink"><linearGradient id="a"><stop offset="0" stop-color="#9aa200"/><stop offset=".22" stop-color="#9aa200"/><stop offset=".44" stop-color="#32a1c6"/><stop offset=".74" stop-color="#0086c5"/><stop offset="1" stop-color="#0072b3"/></linearGradient><linearGradient id="b" gradientUnits="userSpaceOnUse" x1="257.721" x2="1187.81" xlink:href="#a" y1="1141.95" y2="-45.1206"/><linearGradient id="c" gradientUnits="userSpaceOnUse" x1="971.844" x2="1773.91" xlink:href="#a" y1="1434.49" y2="409.63"/><clipPath id="d"><path d="m0 0h1728v1117h-1728z"/></clipPath><g clip-path="url(#d)"><path d="m0 0h1728v1117h-1728z" fill="#fff"/><path d="m0 0h1728v1117h-1728z" fill="#b5bd00" fill-opacity=".05"/><path d="m335.999-10.0002s102.201 164.4102 217.279 182.0662c115.077 17.656 281.255-78.2869 423.973-39.138 142.719 39.149 367.549 191.816 539.609 138.964s211.14 41.108 211.14 41.108v-123.359s-89.16-21.227-217.23 38.836c-168.81 79.167-183.56-101.473-371.25-136.7034-187.698-35.2307-310.846 29.3644-361.68 5.8776-50.834-23.4871-84.068-107.6514-84.068-107.6514z" fill="url(#b)"/><path d="m942.674 1157.05s23.92-243.41 156.256-241.82c132.34 1.59 294.63 124.4 334.49 38.3s-1.27-243.12 294.69-193v130.78s-158.35-83.09-204.54-7.74c-21.44 35-41.24 78-75.59 102.48-19.74 14.05-41.77 19.21-65.84 16.61-20.47-2.2-40.59-8-61.17-8-50.2 0-86.09 37-118.77 70.48-14.8 15.17-28.87 31.69-39.5 50.11-1.34 2.28-18.18 41.8-12.7 41.8z" fill="url(#c)"/></g></svg>

<svg width="1728" height="1117" viewBox="0 0 1728 1117" fill="none" xmlns="http://www.w3.org/2000/svg">
<g clip-path="url(#clip0_316_5661)">
<rect width="1728" height="1117" fill="white"/>
<rect width="1728" height="1117" fill="#B5BD00" fill-opacity="0.05"/>
<path d="M335.999 -10.0002C335.999 -10.0002 438.2 154.41 553.278 172.066C668.355 189.722 834.533 93.7791 977.251 132.928C1119.97 172.077 1344.8 324.744 1516.86 271.892C1688.92 219.04 1728 313 1728 313L1728 189.641C1728 189.641 1638.84 168.414 1510.77 228.477C1341.96 307.644 1327.21 127.004 1139.52 91.7736C951.822 56.5429 828.674 121.138 777.84 97.6512C727.006 74.1641 693.772 -10.0002 693.772 -10.0002L335.999 -10.0002Z" fill="url(#paint0_linear_316_5661)"/>
<path d="M942.674 1157.05C942.674 1157.05 966.594 913.64 1098.93 915.23C1231.27 916.82 1393.56 1039.63 1433.42 953.53C1473.28 867.43 1432.15 710.41 1728.11 760.53L1728.11 891.31C1728.11 891.31 1569.76 808.22 1523.57 883.57C1502.13 918.57 1482.33 961.57 1447.98 986.05C1428.24 1000.1 1406.21 1005.26 1382.14 1002.66C1361.67 1000.46 1341.55 994.66 1320.97 994.66C1270.77 994.66 1234.88 1031.66 1202.2 1065.14C1187.4 1080.31 1173.33 1096.83 1162.7 1115.25C1161.36 1117.53 1144.52 1157.05 1150 1157.05L942.674 1157.05Z" fill="url(#paint1_linear_316_5661)"/>
</g>
<defs>
<linearGradient id="paint0_linear_316_5661" x1="257.721" y1="1141.95" x2="1187.81" y2="-45.1206" gradientUnits="userSpaceOnUse">
<stop stop-color="#9AA200"/>
<stop offset="0.22" stop-color="#9AA200"/>
<stop offset="0.44" stop-color="#32A1C6"/>
<stop offset="0.74" stop-color="#0086C5"/>
<stop offset="1" stop-color="#0072B3"/>
</linearGradient>
<linearGradient id="paint1_linear_316_5661" x1="971.844" y1="1434.49" x2="1773.91" y2="409.63" gradientUnits="userSpaceOnUse">
<stop stop-color="#9AA200"/>
<stop offset="0.22" stop-color="#9AA200"/>
<stop offset="0.44" stop-color="#32A1C6"/>
<stop offset="0.74" stop-color="#0086C5"/>
<stop offset="1" stop-color="#0072B3"/>
</linearGradient>
<clipPath id="clip0_316_5661">
<rect width="1728" height="1117" fill="white"/>
</clipPath>
</defs>
</svg>
